src/22/panel/quota.svg

<svg xmlns="http://www.w3.org/2000/svg" width="22" height="22" version="1.1">
 <defs>
  <style id="current-color-scheme" type="text/css">
   .ColorScheme-Text { color:#dfdfdf; } .ColorScheme-Highlight { color:#4285f4; }
  </style>
 </defs>
 <path style="fill:currentColor" class="ColorScheme-Text" d="m5.166 3c-1.1667 0-1.166 1.1426-1.166 1.1426v13.714s-0.0007 1.143 1.166 1.143h11.668s1.166 0 1.166-1.143v-13.714c0-0.0004 0.001-1.143-1.166-1.143h-11.668zm5.834 2c2.761 0 5 2.2386 5 5 0 2.761-2.239 5-5 5h-5v-5c0-2.7614 2.2386-5 5-5zm0 2c-1.6569 0-3 1.3431-3 3 0 1.657 1.3431 3 3 3 1.657 0 3-1.343 3-3 0-1.6569-1.343-3-3-3z"/>
</svg>

<svg xmlns="http://www.w3.org/2000/svg" width="22" height="22"><defs><style id="current-color-scheme" type="text/css"></style></defs><path d="M5.166 3C3.999 3 4 4.143 4 4.143v13.714S4 19 5.166 19h11.668S18 19 18 17.857V4.143S18.001 3 16.834 3H5.166zM11 5a5 5 0 0 1 0 10H6v-5a5 5 0 0 1 5-5zm0 2a3 3 0 1 0 0 6 3 3 0 0 0 0-6z" fill="currentColor" color="#bebebe"/></svg>
